X:18
T:Saint Anne's Reel
C: Traditional
R:Reel
M:4/4
L:1/8
K:D
[|"D"f2 fg fedB|ABAG FGAd|"G"B2 G2 G2 AG|"D"ABAG FGAd|
f2 fg fedB|ABAG FGAd|"G"BGBd "A"cdec|1"D"dBAF D2 de:|2"D"dBAF D2 ag||
|:"D"fafd Adfg|"G"a2 g2 g2 gf|"A"edcB Aceg|"D"b2 a2 a2 ag|
"D"fafd Adfg|"G"a2 g2 g2 gf|"A"edcB Aceg|1 "D"f2 d2 d2 ag:|2"D"f2 d2 d2|]
